svgs/light/ear-deaf.svg

<svg xmlns="http://www.w3.org/2000/svg" viewBox="0 0 512 512"><!--! Font Awesome Pro 6.3.0 by @fontawesome - https://fontawesome.com License - https://fontawesome.com/license (Commercial License) Copyright 2023 Fonticons, Inc. --><path d="M240 63.1C141.3 63.1 64 141.3 64 240C64 248.8 71.16 256 80 256S96 248.8 96 240C96 159.3 159.3 96 240 96C319.4 96 384 162.1 384 243.4c0 49.19-17.8 91.53-54.39 129.4l-3.812 3.969l-.5781 5.469C319.5 436.2 274 480 224 480c-8.844 0-16 7.156-16 16S215.2 512 224 512c64.16 0 122.4-53.69 132.3-120.8C396.5 348 416 299.6 416 243.4C416 144.5 337 63.1 240 63.1zM160 240C160 195.9 195.9 160 240 160S320 195.9 320 240C320 248.8 327.2 256 336 256S352 248.8 352 240c0-61.75-50.25-112-111.1-112S128 178.3 128 240C128 248.8 135.2 256 144 256S160 248.8 160 240zM176 320c-4.094 0-8.188 1.562-11.31 4.688l-160 160C1.563 487.8 0 491.9 0 496C0 504.5 6.865 512 16 512c4.094 0 8.188-1.562 11.31-4.688l160-160C190.4 344.2 192 340.1 192 336C192 327.5 185.1 320 176 320zM512 16C512 7.473 505.1 0 496 0c-4.094 0-8.188 1.562-11.31 4.688l-64 64C417.6 71.81 416 75.91 416 80C416 88.53 422.9 96 432 96c4.094 0 8.188-1.562 11.31-4.688l64-64C510.4 24.19 512 20.09 512 16z"/></svg>

<svg xmlns="http://www.w3.org/2000/svg" viewBox="0 0 512 512"><!-- Font Awesome Pro 6.0.0-alpha2 by @fontawesome - https://fontawesome.com License - https://fontawesome.com/license (Commercial License) --><path d="M240 64C141.312 64 64 141.312 64 240C64 248.844 71.156 256 80 256S96 248.844 96 240C96 159.25 159.25 96 240 96C319.406 96 384 162.125 384 243.438C384 292.625 366.203 334.969 329.609 372.875L325.797 376.844L325.219 382.312C319.453 436.156 274.047 480 224 480C215.156 480 208 487.156 208 496S215.156 512 224 512C288.156 512 346.422 458.312 356.328 391.219C396.469 348.031 416 299.625 416 243.438C416 144.5 337.047 64 240 64ZM160 240C160 195.875 195.891 160 240 160S320 195.875 320 240C320 248.844 327.156 256 336 256S352 248.844 352 240C352 178.25 301.75 128 240 128S128 178.25 128 240C128 248.844 135.156 256 144 256S160 248.844 160 240ZM176 320C171.906 320 167.812 321.562 164.688 324.688L4.688 484.688C1.562 487.812 0 491.906 0 496C0 504.527 6.865 512 16 512C20.094 512 24.188 510.438 27.312 507.312L187.312 347.312C190.438 344.188 192 340.094 192 336C192 327.473 185.135 320 176 320ZM512 16C512 7.473 505.135 0 496 0C491.906 0 487.812 1.562 484.688 4.688L420.688 68.688C417.562 71.812 416 75.906 416 80C416 88.527 422.865 96 432 96C436.094 96 440.188 94.438 443.312 91.312L507.312 27.312C510.438 24.188 512 20.094 512 16Z "></path></svg>
